svgs/1F4BC.svg

<svg xmlns="http://www.w3.org/2000/svg" xmlns:xlink="http://www.w3.org/1999/xlink" preserveAspectRatio="none" viewBox="0 0 72 72"><defs><path id="c" fill="#795548" d="M118.55 36.3q-2.35-2.3-5.6-2.3H15q-3.25 0-5.6 2.3-2.3 2.35-2.3 5.6v66.05q0 3.25 2.3 5.6 2.35 2.3 5.6 2.3h97.95q3.25 0 5.6-2.3 2.3-2.35 2.3-5.6V41.9q0-3.25-2.3-5.6z"/><path id="d" fill="#5D4037" d="M120.85 45.1q0-2.55-1.9-4.35-1.95-1.85-4.6-1.85H13.6q-2.65 0-4.6 1.85-1.9 1.8-1.9 4.35v24.75q0 1.5 1.4 2.4 9.2 5.95 24.5 9.4 14.5 3.3 31 3.6 16.45-.3 30.95-3.6 15.3-3.45 24.5-9.4 1.4-.9 1.4-2.45V45.1z"/><path id="e" fill="#795548" d="M120.75 32.35Q118.8 30.4 116 30.4H11.95q-2.75 0-4.75 1.95-1.95 2-1.95 4.75v26.85q0 1.6 1.4 2.6 9.5 6.45 25.3 10.2 15 3.55 32.05 3.9 17.05-.35 32-3.9 15.8-3.75 25.3-10.2 1.4-1 1.4-2.65V37.1q0-2.75-1.95-4.75z"/><path id="f" fill="#757575" d="M71.8 73.65q-.45-.45-1.1-.45H57.25q-.65 0-1.1.45-.5.5-.5 1.15v15.7q0 .65.5 1.1.45.5 1.1.5H70.7q.65 0 1.1-.5.5-.45.5-1.1V74.8q0-.65-.5-1.15z"/><path id="g" fill="#BDBDBD" d="M71.8 70.2q-.45-.45-1.1-.45H57.25q-.65 0-1.1.45-.5.5-.5 1.15v15.7q0 .65.5 1.15.45.45 1.1.45H70.7q.65 0 1.1-.45.5-.5.5-1.15v-15.7q0-.65-.5-1.15z"/><path id="h" fill="#757575" d="M73.8 73.35q-.45-.5-1.1-.5H55.25q-.65 0-1.1.45-.5.5-.5 1.15v1.95q0 .65.5 1.1.45.5 1.1.5H72.7q.65 0 1.1-.5.5-.45.5-1.1v-1.95q0-.65-.5-1.1z"/><path id="a" fill="none" stroke="#BDBDBD" stroke-linecap="butt" stroke-linejoin="miter" stroke-miterlimit="10" stroke-width="2" d="M47.419 17.1q0-1.603-.816-3.234"/><path id="b" fill="none" stroke="#BDBDBD" stroke-linecap="butt" stroke-linejoin="miter" stroke-miterlimit="10" stroke-width="2" d="M25.35 13.85q-.8 1.65-.8 3.25"/><path id="i" fill="none" stroke="#795548" stroke-linecap="round" stroke-linejoin="miter" stroke-miterlimit="10" stroke-width="3" d="M46.6 13.85q-1.25-2.45-4.1-4Q39.55 8.3 36 8.3t-6.5 1.55q-2.85 1.55-4.15 4"/></defs><use xlink:href="#a"/><use xlink:href="#b"/><use transform="scale(.5625)" xlink:href="#c"/><use transform="scale(.5625)" xlink:href="#d"/><use transform="scale(.5625)" xlink:href="#e"/><use transform="scale(.5625)" xlink:href="#f"/><use transform="scale(.5625)" xlink:href="#g"/><use transform="scale(.5625)" xlink:href="#h"/><use xlink:href="#i"/></svg>

<svg xmlns="http://www.w3.org/2000/svg" version="1.1" xmlns:xlink="http://www.w3.org/1999/xlink" preserveAspectRatio="none" x="0px" y="0px" width="72px" height="72px" viewBox="0 0 72 72">
<defs>
<g id="Layer0_0_MEMBER_2_FILL">
<path fill="#795548" stroke="none" d="
M 118.55 36.3
Q 116.2 34 112.95 34
L 15 34
Q 11.75 34 9.4 36.3 7.1 38.65 7.1 41.9
L 7.1 107.95
Q 7.1 111.2 9.4 113.55 11.75 115.85 15 115.85
L 112.95 115.85
Q 116.2 115.85 118.55 113.55 120.85 111.2 120.85 107.95
L 120.85 41.9
Q 120.85 38.65 118.55 36.3 Z"/>
</g>

<g id="Layer0_0_MEMBER_3_FILL">
<path fill="#5D4037" stroke="none" d="
M 120.85 45.1
Q 120.85 42.55 118.95 40.75 117 38.9 114.35 38.9
L 13.6 38.9
Q 10.95 38.9 9 40.75 7.1 42.55 7.1 45.1
L 7.1 69.85
Q 7.1 71.35 8.5 72.25 17.7 78.2 33 81.65 47.5 84.95 64 85.25 80.45 84.95 94.95 81.65 110.25 78.2 119.45 72.25 120.85 71.35 120.85 69.8
L 120.85 45.1 Z"/>
</g>

<g id="Layer0_0_MEMBER_4_FILL">
<path fill="#795548" stroke="none" d="
M 120.75 32.35
Q 118.8 30.4 116 30.4
L 11.95 30.4
Q 9.2 30.4 7.2 32.35 5.25 34.35 5.25 37.1
L 5.25 63.95
Q 5.25 65.55 6.65 66.55 16.15 73 31.95 76.75 46.95 80.3 64 80.65 81.05 80.3 96 76.75 111.8 73 121.3 66.55 122.7 65.55 122.7 63.9
L 122.7 37.1
Q 122.7 34.35 120.75 32.35 Z"/>
</g>

<g id="Layer0_0_MEMBER_5_FILL">
<path fill="#757575" stroke="none" d="
M 71.8 73.65
Q 71.35 73.2 70.7 73.2
L 57.25 73.2
Q 56.6 73.2 56.15 73.65 55.65 74.15 55.65 74.8
L 55.65 90.5
Q 55.65 91.15 56.15 91.6 56.6 92.1 57.25 92.1
L 70.7 92.1
Q 71.35 92.1 71.8 91.6 72.3 91.15 72.3 90.5
L 72.3 74.8
Q 72.3 74.15 71.8 73.65 Z"/>
</g>

<g id="Layer0_0_MEMBER_6_FILL">
<path fill="#BDBDBD" stroke="none" d="
M 71.8 70.2
Q 71.35 69.75 70.7 69.75
L 57.25 69.75
Q 56.6 69.75 56.15 70.2 55.65 70.7 55.65 71.35
L 55.65 87.05
Q 55.65 87.7 56.15 88.2 56.6 88.65 57.25 88.65
L 70.7 88.65
Q 71.35 88.65 71.8 88.2 72.3 87.7 72.3 87.05
L 72.3 71.35
Q 72.3 70.7 71.8 70.2 Z"/>
</g>

<g id="Layer0_0_MEMBER_7_FILL">
<path fill="#757575" stroke="none" d="
M 73.8 73.35
Q 73.35 72.85 72.7 72.85
L 55.25 72.85
Q 54.6 72.85 54.15 73.3 53.65 73.8 53.65 74.45
L 53.65 76.4
Q 53.65 77.05 54.15 77.5 54.6 78 55.25 78
L 72.7 78
Q 73.35 78 73.8 77.5 74.3 77.05 74.3 76.4
L 74.3 74.45
Q 74.3 73.8 73.8 73.35 Z"/>
</g>

<path id="Layer0_0_MEMBER_0_1_STROKES" stroke="#BDBDBD" stroke-width="2" stroke-linejoin="miter" stroke-linecap="butt" stroke-miterlimit="10" fill="none" d="
M 47.418749999999996 17.099999999999998
Q 47.418749999999996 15.496875000000001 46.603125 13.865625"/>

<path id="Layer0_0_MEMBER_1_1_STROKES" stroke="#BDBDBD" stroke-width="2" stroke-linejoin="miter" stroke-linecap="butt" stroke-miterlimit="10" fill="none" d="
M 25.35 13.85
Q 24.55 15.5 24.55 17.1"/>

<path id="Layer0_0_MEMBER_8_1_STROKES" stroke="#795548" stroke-width="3" stroke-linejoin="miter" stroke-linecap="round" stroke-miterlimit="10" fill="none" d="
M 46.6 13.85
Q 45.35 11.4 42.5 9.85 39.55 8.3 36 8.3 32.45 8.3 29.5 9.85 26.65 11.4 25.35 13.85"/>
</defs>

<g id="Layer_1">
<g transform="matrix( 0.5625, 0, 0, 0.5625, 0,0) ">
<use xlink:href="#Layer0_0_MEMBER_0_1_STROKES" transform="matrix( 1.77777099609375, 0, 0, 1.77777099609375, 0,0) "/>
</g>

<g transform="matrix( 1, 0, 0, 1, 0,0) ">
<use xlink:href="#Layer0_0_MEMBER_1_1_STROKES"/>
</g>

<g transform="matrix( 0.5625, 0, 0, 0.5625, 0,0) ">
<use xlink:href="#Layer0_0_MEMBER_2_FILL"/>
</g>

<g transform="matrix( 0.5625, 0, 0, 0.5625, 0,0) ">
<use xlink:href="#Layer0_0_MEMBER_3_FILL"/>
</g>

<g transform="matrix( 0.5625, 0, 0, 0.5625, 0,0) ">
<use xlink:href="#Layer0_0_MEMBER_4_FILL"/>
</g>

<g transform="matrix( 0.5625, 0, 0, 0.5625, 0,0) ">
<use xlink:href="#Layer0_0_MEMBER_5_FILL"/>
</g>

<g transform="matrix( 0.5625, 0, 0, 0.5625, 0,0) ">
<use xlink:href="#Layer0_0_MEMBER_6_FILL"/>
</g>

<g transform="matrix( 0.5625, 0, 0, 0.5625, 0,0) ">
<use xlink:href="#Layer0_0_MEMBER_7_FILL"/>
</g>

<g transform="matrix( 1, 0, 0, 1, 0,0) ">
<use xlink:href="#Layer0_0_MEMBER_8_1_STROKES"/>
</g>
</g>
</svg>
